static/images/master/South_African_Broadcasting_Corporation_logo.svg

<?xml version="1.0" encoding="UTF-8" standalone="no"?>
<!DOCTYPE svg PUBLIC "-//W3C//DTD SVG 1.0//EN" "http://www.w3.org/TR/2001/REC-SVG-20010904/DTD/svg10.dtd">
<!-- Created with Inkscape (http://www.inkscape.org/) by Marsupilami -->
<svg
   xmlns:svg="http://www.w3.org/2000/svg"
   xmlns="http://www.w3.org/2000/svg"
   version="1.0"
   width="1024"
   height="436"
   viewBox="-1.77756879 -1.77756879 147.56287758 62.80743058"
   id="svg2616">
  <defs
     id="defs2618" />
  <path
     d="M 41.6775,58.831663 L 48.4575,58.831663 C 53.6325,58.831663 58.1525,57.595413 58.1525,52.446663 C 58.1525,49.082913 55.71,46.955413 52.2475,46.680413 C 55.455,45.856663 57.49625,44.209163 57.49625,40.914163 C 57.49625,36.485413 53.85125,34.872913 48.56625,34.872913 L 41.6775,34.872913 L 41.6775,58.831663 z M 45.3225,47.916663 L 47.69125,47.916663 C 50.82625,47.916663 54.28875,48.431663 54.28875,52.137913 C 54.28875,55.364163 51.33625,56.016663 48.05625,56.016663 L 45.3225,56.016663 L 45.3225,47.916663 z M 45.3225,37.687913 L 49.15,37.687913 C 51.26375,37.687913 53.85125,38.407913 53.85125,41.256663 C 53.85125,44.792913 50.8625,45.101663 47.3275,45.101663 L 45.3225,45.101663 L 45.3225,37.687913 z M 80.665,35.467913 C 78.8425,34.712913 76.91125,34.437913 74.9425,34.437913 C 67.17875,34.437913 61.4925,39.346663 61.4925,46.726663 C 61.4925,54.346663 66.85125,59.220413 74.90625,59.220413 C 76.4,59.220413 78.77,59.117913 80.70125,58.362913 L 80.4825,55.032913 C 79.2075,55.754163 76.765,56.199163 74.9425,56.199163 C 69.6575,56.199163 65.35625,52.457913 65.35625,46.829163 C 65.35625,41.440413 69.25625,37.457913 75.125,37.457913 C 76.98375,37.457913 78.77,37.904163 80.37375,38.796663 L 80.665,35.467913 z M 27.7275,42.691663 L 23.80625,51.645413 L 31.6925,51.645413 L 27.7275,42.691663 z M 33.06,54.690413 L 22.3625,54.690413 L 20.44,58.857913 L 16.68125,58.857913 L 27.56375,35.025413 L 38.57625,58.857913 L 34.86625,58.857913 L 33.06,54.690413 z M 13.595,35.324163 C 11.84625,34.740413 9.84125,34.465413 8.165,34.465413 C 3.57125,34.465413 0,36.731663 0,40.987913 C 0,48.436663 10.935,46.960413 10.935,52.315413 C 10.935,55.129163 8.01875,56.227913 5.94125,56.227913 C 4.0825,56.227913 1.895,55.541663 0.65625,55.060413 L 0.29125,58.252913 C 1.9675,58.767913 3.7175,59.249163 5.50375,59.249163 C 10.60625,59.249163 14.79875,57.222913 14.79875,52.109163 C 14.79875,44.214163 3.86375,45.277913 3.86375,40.679163 C 3.86375,38.172913 6.26875,37.486663 8.31,37.486663 C 10.20625,37.486663 11.22625,37.795413 13.085,38.481663 L 13.595,35.324163 z"
     id="path2536"
     style="fill:#000000;fill-opacity:1;fill-rule:nonzero;stroke:none" />
  <path
     d="M 82.13524,2.1539127 C 82.13524,2.1539127 104.35524,-5.4310873 127.27149,7.8664127 L 127.42774,15.885163 C 127.42774,15.885163 135.95274,13.382663 144.00774,16.353913 L 136.10899,23.195163 C 136.10899,23.195163 115.53774,0.55516266 83.94024,9.0801627 L 82.13524,2.1539127 z"
     id="path2540"
     style="fill:#feb912;fill-opacity:1;fill-rule:nonzero;stroke:none" />
  <path
     d="M 74.3195,19.915283 L 77.88075,25.816533 C 77.88075,25.816533 103.4545,11.075283 126.05825,32.465283 L 131.45575,27.811533 C 131.45575,27.811533 107.44325,2.0840327 74.3195,19.915283"
     id="path2544"
     style="fill:#009247;fill-opacity:1;fill-rule:nonzero;stroke:none" />
  <path
     d="M 97.23774,27.498913 C 97.23774,27.498913 110.57149,25.972663 121.24899,36.961413 L 116.12649,42.083913 C 116.12649,42.083913 110.84774,34.810163 97.23774,34.185163 L 97.23774,27.498913 z"
     id="path2548"
     style="fill:#0060af;fill-opacity:1;fill-rule:nonzero;stroke:none" />
  <path
     d="M 97.08149,41.146043 C 97.08149,41.146043 104.63024,39.932293 111.47274,46.268543 L 97.39399,59.252293 L 97.08149,41.146043 z"
     id="path2552"
     style="fill:#ed1c24;fill-opacity:1;fill-rule:nonzero;stroke:none" />
</svg>
<!-- version: 20090314, original size: 144.00774 59.252293, border: 3% -->

<svg height="436" viewBox="-1.77756879 -1.77756879 147.56287758 62.80743058" width="1024" xmlns="http://www.w3.org/2000/svg"><path d="m41.6775 58.831663h6.78c5.175 0 9.695-1.23625 9.695-6.385 0-3.36375-2.4425-5.49125-5.905-5.76625 3.2075-.82375 5.24875-2.47125 5.24875-5.76625 0-4.42875-3.645-6.04125-8.93-6.04125h-6.88875zm3.645-10.915h2.36875c3.135 0 6.5975.515 6.5975 4.22125 0 3.22625-2.9525 3.87875-6.2325 3.87875h-2.73375zm0-10.22875h3.8275c2.11375 0 4.70125.72 4.70125 3.56875 0 3.53625-2.98875 3.845-6.52375 3.845h-2.005zm35.3425-2.22c-1.8225-.755-3.75375-1.03-5.7225-1.03-7.76375 0-13.45 4.90875-13.45 12.28875 0 7.62 5.35875 12.49375 13.41375 12.49375 1.49375 0 3.86375-.1025 5.795-.8575l-.21875-3.33c-1.275.72125-3.7175 1.16625-5.54 1.16625-5.285 0-9.58625-3.74125-9.58625-9.37 0-5.38875 3.9-9.37125 9.76875-9.37125 1.85875 0 3.645.44625 5.24875 1.33875zm-52.9375 7.22375-3.92125 8.95375h7.88625zm5.3325 11.99875h-10.6975l-1.9225 4.1675h-3.75875l10.8825-23.8325 11.0125 23.8325h-3.71zm-19.465-19.36625c-1.74875-.58375-3.75375-.85875-5.43-.85875-4.59375 0-8.165 2.26625-8.165 6.5225 0 7.44875 10.935 5.9725 10.935 11.3275 0 2.81375-2.91625 3.9125-4.99375 3.9125-1.85875 0-4.04625-.68625-5.285-1.1675l-.365 3.1925c1.67625.515 3.42625.99625 5.2125.99625 5.1025 0 9.295-2.02625 9.295-7.14 0-7.895-10.935-6.83125-10.935-11.43 0-2.50625 2.405-3.1925 4.44625-3.1925 1.89625 0 2.91625.30875 4.775.995z"/><path d="m82.13524 2.1539127s22.22-7.585 45.13625 5.7125l.15625 8.0187503s8.525-2.5025 16.58.46875l-7.89875 6.84125s-20.57125-22.64000034-52.16875-14.1150003z" fill="#feb912"/><path d="m74.3195 19.915283 3.56125 5.90125s25.57375-14.74125 48.1775 6.64875l5.3975-4.65375s-24.0125-25.7275003-57.13625-7.89625" fill="#009247"/><path d="m97.23774 27.498913s13.33375-1.52625 24.01125 9.4625l-5.1225 5.1225s-5.27875-7.27375-18.88875-7.89875z" fill="#0060af"/><path d="m97.08149 41.146043s7.54875-1.21375 14.39125 5.1225l-14.07875 12.98375z" fill="#ed1c24"/></svg>
